packages/ffe-icons/icons/filled/sm/view_cozy.svg

<svg xmlns="http://www.w3.org/2000/svg" height="20" viewBox="0 -960 960 960" width="20"><path d="M228.309-552q-30.308 0-47.308-17t-17-47.307v-115.384q0-30.308 17-47.308t47.308-17h115.384q30.307 0 47.307 17 17 17 17 47.308v115.384Q408-586 391-569q-17 17-47.307 17H228.309Zm0 387.999q-30.308 0-47.308-17t-17-47.308v-115.384q0-30.307 17-47.307 17-17 47.308-17h115.384Q374-408 391-391q17 17 17 47.307v115.384q0 30.308-17 47.308t-47.307 17H228.309ZM616.307-552Q586-552 569-569q-17-17-17-47.307v-115.384q0-30.308 17-47.308t47.307-17h115.384q30.308 0 47.308 17t17 47.308v115.384q0 30.307-17 47.307-17 17-47.308 17H616.307Zm0 387.999q-30.307 0-47.307-17-17-17-17-47.308v-115.384Q552-374 569-391q17-17 47.307-17h115.384q30.308 0 47.308 17t17 47.307v115.384q0 30.308-17 47.308t-47.308 17H616.307Z"/></svg>

<svg xmlns="http://www.w3.org/2000/svg" height="20" viewBox="0 -960 960 960" width="20"><path d="M228.31-552Q198-552 181-569q-17-17-17-47.31v-115.38Q164-762 181-779q17-17 47.31-17h115.38Q374-796 391-779q17 17 17 47.31v115.38Q408-586 391-569q-17 17-47.31 17H228.31Zm0 388Q198-164 181-181q-17-17-17-47.31v-115.38Q164-374 181-391q17-17 47.31-17h115.38Q374-408 391-391q17 17 17 47.31v115.38Q408-198 391-181q-17 17-47.31 17H228.31Zm388-388Q586-552 569-569q-17-17-17-47.31v-115.38Q552-762 569-779q17-17 47.31-17h115.38Q762-796 779-779q17 17 17 47.31v115.38Q796-586 779-569q-17 17-47.31 17H616.31Zm0 388Q586-164 569-181q-17-17-17-47.31v-115.38Q552-374 569-391q17-17 47.31-17h115.38Q762-408 779-391q17 17 17 47.31v115.38Q796-198 779-181q-17 17-47.31 17H616.31Z"/></svg>
